Suru++-Ubuntu/apps/symbolic/gtranslator-symbolic.svg

<svg width="16" height="16" version="1.1" xmlns="http://www.w3.org/2000/svg">
 <path d="m8.7494281 14.821613c-0.2672647-0.402652-0.4859349-0.789486-0.4859349-0.859623 0-0.07017 0.4814567-0.197707 1.0699026-0.28348 1.9041382-0.277521 3.4767412-1.236114 3.8905022-2.371474 0.623723-1.7114827-0.463809-3.4432606-2.411627-3.8402572-0.332674-0.067848-0.396114 3.126e-4 -0.8576543 0.9217655-0.6466392 1.290896-1.4277432 2.4406927-2.2664373 3.3362357-0.6019883 0.642792-0.6629668 0.763467-0.5809423 1.149686 0.2808766 1.322553 0.3219554 1.216687-0.6229395 1.605377l-0.8583177 0.353082-0.079855-0.369515c-0.1379693-0.638376-0.2270791-0.692312-0.7016533-0.42468-1.144771 0.645574-2.608937 0.685335-3.25311 0.08831-1.1228269-1.040605-0.5883239-3.614635 1.109304-5.3421577 0.418663-0.4260311 1.105582-0.9938676 1.526489-1.2618622l0.7652852-0.4872555 0.09653-1.0301405c0.053099-0.5665864 0.053532-1.0730672 9.305e-4 -1.1255209-0.052555-0.052423-0.7903464-0.073594-1.6395394-0.04708l-1.543989 0.04829-0.0018-0.5892696c-1e-3 -0.3240976-0.03808-0.7243505-0.08234-0.889454-0.07969-0.2972711-0.06371-0.3005375 1.654609-0.3381412l1.7350789-0.038007 0.1972018-1.2632432 0.1971998-1.2632332 0.3986862 0.079744c0.2192771 0.043854 0.6229475 0.079744 0.8970444 0.079744h0.4983573l-0.1109472 1.0355239c-0.061023 0.5695302-0.0793 1.0671595-0.040628 1.105842 0.093586 0.093556 1.8565867-0.1701947 3.4402049-0.5147174 1.470271-0.3198636 1.491631-0.3090664 1.494819 0.7555526l0.0021 0.6914851-1.927413 0.3557837c-1.0600699 0.1956834-2.2317345 0.4022217-2.6036918 0.45897l-0.6762854 0.1031834-0.041052 0.7934387c-0.04091 0.7905351-0.039791 0.7931261 0.3044218 0.7067383 0.1900117-0.047685 0.6345462-0.1243847 0.9878549-0.1704265 0.7945204-0.1035363 0.9504337-0.2218217 1.0596236-0.8038427 0.096681-0.5153424 0.1157993-0.5202622 1.1858109-0.3053765l0.769004 0.1544374-0.08359 0.4455688c-0.08072 0.4302754-0.06571 0.4488756 0.437057 0.5415844 1.540757 0.2841148 3.093398 1.5986625 3.486871 2.9521551 0.596755 2.0527687-0.188845 4.1745367-1.959511 5.2923047-0.669399 0.422573-1.971516 0.946747-2.638119 1.061978-0.292991 0.05061-0.6944503 0.124042-0.8921323 0.163087-0.3151867 0.0623-0.4192251-0.01905-0.8453569-0.661089zm-5.0955535-2.121172c0.253403-0.07269 0.702037-0.299368 0.996964-0.503749l0.5362322-0.371612-0.093193-1.353078c-0.051254-0.7442007-0.1256206-1.3848557-0.1652557-1.4236687-0.1187968-0.11636-1.4653998 1.4044537-1.7215598 1.9442727-0.394962 0.832313-0.460956 1.839972-0.120505 1.839972 0.05862 0 0.313911-0.05948 0.5673173-0.132137zm3.7225396-3.2839647c0.1444326-0.241299 0.4332071-0.766178 0.6417223-1.1664007l0.3791151-0.7276775-0.4388365 0.073292c-0.2413595 0.040326-0.6062175 0.1380349-0.8107938 0.2171136-0.3568261 0.1379341-0.3719553 0.1824335-0.3719553 1.0939256 0 1.0769082 0.1732564 1.2239057 0.6007482 0.509707z" style="clip-rule:evenodd;fill-rule:evenodd;fill:#808080;image-rendering:optimizeQuality;shape-rendering:geometricPrecision"/>
</svg>

<svg xmlns="http://www.w3.org/2000/svg" width="16" height="16" version="1.1">
 <path style="clip-rule:evenodd;fill:#808080;fill-rule:evenodd;image-rendering:optimizeQuality;shape-rendering:geometricPrecision;text-rendering:geometricPrecision" d="M 8.7494281,14.821613 C 8.4821634,14.418961 8.2634932,14.032127 8.2634932,13.96199 c 0,-0.07017 0.4814567,-0.197707 1.0699026,-0.28348 C 11.237534,13.400989 12.810137,12.442396 13.223898,11.307036 13.847621,9.5955533 12.760089,7.8637754 10.812271,7.4667788 10.479597,7.3989308 10.416157,7.4670914 9.9546167,8.3885443 9.3079775,9.6794403 8.5268735,10.829237 7.6881794,11.72478 7.0861911,12.367572 7.0252126,12.488247 7.1072371,12.874466 7.3881137,14.197019 7.4291925,14.091153 6.4842976,14.479843 L 5.6259799,14.832925 5.5461249,14.46341 C 5.4081556,13.825034 5.3190458,13.771098 4.8444716,14.03873 3.6997006,14.684304 2.2355346,14.724065 1.5913616,14.12704 0.46853467,13.086435 1.0030377,10.512405 2.7006656,8.7848823 3.1193286,8.3588512 3.8062476,7.7910147 4.2271546,7.5230201 L 4.9924398,7.0357646 5.0889698,6.0056241 C 5.1420688,5.4390377 5.1425018,4.9325569 5.0899003,4.8801032 5.0373453,4.8276802 4.2995539,4.8065092 3.4503609,4.8330232 l -1.543989,0.04829 -0.0018,-0.5892696 c -0.001,-0.3240976 -0.03808,-0.7243505 -0.08234,-0.889454 -0.07969,-0.2972711 -0.06371,-0.3005375 1.654609,-0.3381412 l 1.7350789,-0.038007 0.1972018,-1.2632432 0.1971998,-1.26323324 0.3986862,0.079744 c 0.2192771,0.043854 0.6229475,0.079744 0.8970444,0.079744 H 7.4004093 L 7.2894621,1.6949769 c -0.061023,0.5695302 -0.0793,1.0671595 -0.040628,1.105842 0.093586,0.093556 1.8565867,-0.1701947 3.4402049,-0.5147174 1.470271,-0.3198636 1.491631,-0.3090664 1.494819,0.7555526 l 0.0021,0.6914851 -1.927413,0.3557837 C 9.1984751,4.2846063 8.0268105,4.4911446 7.6548532,4.5478929 L 6.9785678,4.6510763 6.9375158,5.444515 C 6.8966058,6.2350501 6.8977248,6.2376411 7.2419376,6.1512533 7.4319493,6.1035683 7.8764838,6.0268686 8.2297925,5.9808268 9.0243129,5.8772905 9.1802262,5.7590051 9.2894161,5.1769841 9.3860971,4.6616417 9.4052154,4.6567219 10.475227,4.8716076 l 0.769004,0.1544374 -0.08359,0.4455688 c -0.08072,0.4302754 -0.06571,0.4488756 0.437057,0.5415844 1.540757,0.2841148 3.093398,1.5986625 3.486871,2.9521551 0.596755,2.0527687 -0.188845,4.1745367 -1.959511,5.2923047 -0.669399,0.422573 -1.971516,0.946747 -2.638119,1.061978 -0.292991,0.05061 -0.6944503,0.124042 -0.8921323,0.163087 -0.3151867,0.0623 -0.4192251,-0.01905 -0.8453569,-0.661089 z M 3.6538746,12.700441 c 0.253403,-0.07269 0.702037,-0.299368 0.996964,-0.503749 L 5.1870708,11.82508 5.0938778,10.472002 C 5.0426238,9.7278013 4.9682572,9.0871463 4.9286221,9.0483333 4.8098253,8.9319733 3.4632223,10.452787 3.2070623,10.992606 c -0.394962,0.832313 -0.460956,1.839972 -0.120505,1.839972 0.05862,0 0.313911,-0.05948 0.5673173,-0.132137 z M 7.3764142,9.4164763 C 7.5208468,9.1751773 7.8096213,8.6502983 8.0181365,8.2500756 L 8.3972516,7.5223981 7.9584151,7.5956901 C 7.7170556,7.6360161 7.3521976,7.733725 7.1476213,7.8128037 6.7907952,7.9507378 6.775666,7.9952372 6.775666,8.9067293 c 0,1.0769082 0.1732564,1.2239057 0.6007482,0.509707 z"/>
</svg>
